X: 308
P: Longways for as many as will
M: C|
L: 1/8
K: G
V: 1
|:\
|:\
g2d2 d2cB | g2d2 d4   | e2c2 edcB | AGFE D4 |\
V: 2 clef=bass middle=d
|:\
g4 G4   | d4 e2f2 | g2G2 B2G2 | d4-dcBA |\
|:\
z4 g2G2 | z4 g2G2 | c4   A4   | d4 z2B2 |\
e4 f4   | g4 a4   | b2A2 B2G2 | d4 G4 :|

